dist/uploads/catalog-sidebar-icons/1/i-catalog-2.svg

<svg width="38" height="38" viewBox="0 0 38 38" fill="none" xmlns="http://www.w3.org/2000/svg">
<path d="M38 22.8887V20H0V22.8887C0 24.0547 1.27868 25.3333 2.44469 25.3333H36.2226C37.388 25.3333 38 24.0547 38 22.8887Z" fill="#FFC800"/>
<path d="M37.3661 18.6667L30.3974 12.6667H8.42597L1.21265 18.6667H37.3661ZM26.8067 13.0374C26.9694 13.042 27.4934 13.5054 28.1754 14.3067C29.2613 15.582 30.4214 17.31 30.0054 17.2667C29.596 17.2234 28.1493 15.4987 27.3307 14.262C26.8127 13.4794 26.6447 13.0321 26.8067 13.0374ZM18.9807 14.1734C19.0514 13.4587 19.216 13.1174 19.37 13.2041C19.5254 13.2913 19.6946 13.828 19.7707 14.6388C19.8913 15.9301 19.7514 17.5167 19.3787 17.2754C19.0113 17.0374 18.87 15.3027 18.9807 14.1734ZM10.7193 14.3061C11.4013 13.5054 11.9253 13.0421 12.088 13.0367C12.25 13.0321 12.082 13.4787 11.564 14.2614C10.7453 15.4974 9.29868 17.2227 8.88931 17.266C8.47338 17.3094 9.63332 15.5814 10.7193 14.3061Z" fill="#FFC800"/>
</svg>

<svg width="38" height="38" fill="none" xmlns="http://www.w3.org/2000/svg"><path d="M38 22.889V20H0v2.889c0 1.166 1.279 2.444 2.445 2.444h33.778c1.165 0 1.777-1.278 1.777-2.444zm-.634-4.222l-6.969-6H8.426l-7.213 6h36.153zm-10.56-5.63c.163.005.687.468 1.37 1.27 1.085 1.275 2.245 3.003 1.83 2.96-.41-.044-1.857-1.768-2.675-3.005-.518-.783-.686-1.23-.524-1.225zm-7.825 1.136c.07-.714.235-1.056.389-.969.155.087.325.624.4 1.435.121 1.291-.019 2.878-.391 2.636-.368-.238-.509-1.972-.398-3.102zm-8.262.133c.682-.8 1.206-1.264 1.369-1.27.162-.004-.006.443-.524 1.225-.819 1.236-2.265 2.962-2.675 3.005-.416.043.744-1.685 1.83-2.96z" fill="#FFC800"/></svg>
